X:40
T:Farewell to Ireland (Am)
Z:Piper's version. Fiddlers will play the first part: 
Z:   B,|A,3B, EDEF|GEDB, G,A,B,G,|A,G,(3A,B,D E2AF|GEDB, EA,~A,2|\
Z:   A,G,A,C E2EF|GEDB, G,A,B,g|ed (3efg abaf|(3gfe dB BAA:|
M:C|
E:7
S:Tom Creegan
I:speed 350
R:reel
K:ADor
~A3B ~e3f|(3.g.fe dB GABG|~A3B ~e3f|gedf eAAG|\
~A3B ~e3f|(3.g.fe dB GABg|ed (3efg ~a3f|(3.g.fe dB BA ~A2:|*
ea~a2 agea|~g3agedB|ea~a2 agef|gedB BA~A2|\
agef ~g3e|dedB GABd|cA~A2(3.B.cd ef|gedB BA ~A2:|*
eA~A2 eA~A2|BG~G2 (3BAG Bd|eA^ce ~a3f|(3.g.f.e dB BA ~A2|\
eA ~A2 efe^c|dedB GABd|cA~A2 (3Bcd ef|gedB BA ~A2:|*
ae^ce aece|gdBd gdBd|ae^ce ~a3f|(3.g.fe dB BA~A2|\
agef ~g3 e|dedB GABd|cA~A2 (3.B.^cd ef|gedB BA~A2:|**
<end>
<start>
